build/img/purchase/purchase-2.svg

<svg width="70" height="70" viewBox="0 0 70 70" fill="none" xmlns="http://www.w3.org/2000/svg">
<path d="M16.3334 46.0835C12.4729 46.0835 9.33338 49.223 9.33338 53.0835C9.33338 56.944 12.4729 60.0835 16.3334 60.0835C20.1939 60.0835 23.3334 56.944 23.3334 53.0835C23.3334 49.223 20.1938 46.0835 16.3334 46.0835ZM16.3334 57.7501C13.7596 57.7501 11.6668 55.6571 11.6668 53.0835C11.6668 50.5098 13.7598 48.4169 16.3334 48.4169C18.907 48.4169 21 50.5099 21 53.0835C21 55.6571 18.907 57.7501 16.3334 57.7501Z" fill="#5D5D5D"/>
<path d="M56 46.0835C52.1395 46.0835 49 49.223 49 53.0835C49 56.944 52.1395 60.0835 56 60.0835C59.8605 60.0835 63 56.944 63 53.0835C63 49.223 59.8605 46.0835 56 46.0835ZM56 57.7501C53.4263 57.7501 51.3334 55.6571 51.3334 53.0835C51.3334 50.5098 53.4264 48.4169 56 48.4169C58.5737 48.4169 60.6666 50.5099 60.6666 53.0835C60.6666 55.6571 58.5737 57.7501 56 57.7501Z" fill="#5D5D5D"/>
<path d="M59.3145 23.2855L69.8145 39.6189C69.9359 39.8066 70 40.0272 69.9999 40.25V53.0834C69.9999 53.7286 69.4784 54.25 68.8332 54.25L50.1666 54.2499H45.5C44.8548 54.2499 44.3334 53.7284 44.3334 53.0832V23.9166C44.3334 23.2727 44.8548 22.75 45.5 22.75H58.3332C58.73 22.75 59.0998 22.9518 59.3145 23.2855Z" fill="#5D5D5D"/>
<path d="M51.3334 37.9168V29.7501H60.6668V27.4167H50.1668C49.5216 27.4167 49.0001 27.9394 49.0001 28.5834V39.0834C49.0001 39.7286 49.5216 40.25 50.1668 40.25H67.6668V37.9166H51.3334V37.9168Z" fill="white"/>
<path d="M45.5 14.5835H1.16662C0.522676 14.5835 0 15.1062 0 15.7501V53.0835C0 53.7287 0.522676 54.2501 1.16662 54.2501H10.5V51.9167H2.33338V16.9167H44.3334V51.9167H22.1666V54.2501H45.5C46.1452 54.2501 46.6666 53.7287 46.6666 53.0835V15.7501C46.6666 15.1062 46.1452 14.5835 45.5 14.5835Z" fill="#5D5D5D"/>
<path d="M8.16663 47.25H1.16663V49.5834H8.16663V47.25Z" fill="#5D5D5D"/>
<path d="M44.3334 47.25H24.5V49.5834H44.3334V47.25Z" fill="#5D5D5D"/>
<path d="M68.8332 47.25H64.1666V49.5834H68.8332V47.25Z" fill="white"/>
<path d="M45.5 19.25H4.66663V21.5834H45.5V19.25Z" fill="#1DD9B7"/>
<path d="M17.5 51.9167H15.1666V54.2501H17.5V51.9167Z" fill="#5D5D5D"/>
<path d="M57.1668 51.9167H54.8334V54.2501H57.1668V51.9167Z" fill="white"/>
<path d="M21 9.91675H4.66663V12.2501H21V9.91675Z" fill="#1DD9B7"/>
<path d="M2.33338 9.91675H0V12.2501H2.33338V9.91675Z" fill="#1DD9B7"/>
</svg>

<svg width="70" height="70" fill="none" xmlns="http://www.w3.org/2000/svg"><path d="M16.333 46.084c-3.86 0-7 3.139-7 7 0 3.86 3.14 7 7 7s7-3.14 7-7c0-3.861-3.14-7-7-7zm0 11.666a4.671 4.671 0 0 1-4.666-4.666 4.671 4.671 0 0 1 4.666-4.667A4.671 4.671 0 0 1 21 53.083a4.671 4.671 0 0 1-4.667 4.667zM56 46.084c-3.86 0-7 3.139-7 7 0 3.86 3.14 7 7 7s7-3.14 7-7c0-3.861-3.14-7-7-7zm0 11.666a4.671 4.671 0 0 1-4.667-4.666A4.671 4.671 0 0 1 56 48.416a4.671 4.671 0 0 1 4.667 4.666A4.671 4.671 0 0 1 56 57.75z" fill="#5D5D5D"/><path d="M59.315 23.285l10.5 16.334c.12.188.185.408.185.631v12.833c0 .646-.522 1.167-1.167 1.167H45.5a1.166 1.166 0 0 1-1.167-1.167V23.917c0-.644.522-1.167 1.167-1.167h12.833c.397 0 .767.202.982.535z" fill="#5D5D5D"/><path d="M51.333 37.917V29.75h9.334v-2.333h-10.5c-.645 0-1.167.522-1.167 1.166v10.5c0 .646.522 1.167 1.167 1.167h17.5v-2.333H51.333z" fill="#fff"/><path d="M45.5 14.584H1.167C.523 14.584 0 15.106 0 15.75v37.334c0 .645.523 1.166 1.167 1.166H10.5v-2.333H2.333v-35h42v35H22.167v2.333H45.5c.645 0 1.167-.521 1.167-1.166V15.75c0-.644-.522-1.166-1.167-1.166z" fill="#5D5D5D"/><path d="M8.167 47.25h-7v2.333h7V47.25zm36.166 0H24.5v2.333h19.833V47.25z" fill="#5D5D5D"/><path d="M68.833 47.25h-4.666v2.333h4.666V47.25z" fill="#fff"/><path d="M45.5 19.25H4.667v2.333H45.5V19.25z" fill="#1DD9B7"/><path d="M17.5 51.917h-2.333v2.333H17.5v-2.333z" fill="#5D5D5D"/><path d="M57.167 51.917h-2.334v2.333h2.334v-2.333z" fill="#fff"/><path d="M21 9.917H4.667v2.333H21V9.917zm-18.667 0H0v2.333h2.333V9.917z" fill="#1DD9B7"/></svg>
